src/scalable/apps/brackets.svg

<?xml version="1.0" encoding="UTF-8" standalone="no"?>
<svg
   xmlns:dc="http://purl.org/dc/elements/1.1/"
   xmlns:cc="http://creativecommons.org/ns#"
   xmlns:rdf="http://www.w3.org/1999/02/22-rdf-syntax-ns#"
   xmlns:svg="http://www.w3.org/2000/svg"
   xmlns="http://www.w3.org/2000/svg"
   xmlns:sodipodi="http://sodipodi.sourceforge.net/DTD/sodipodi-0.dtd"
   xmlns:inkscape="http://www.inkscape.org/namespaces/inkscape"
   width="64"
   height="64"
   version="1.1"
   id="svg44"
   sodipodi:docname="brackets.svg"
   inkscape:version="1.0.1 (3bc2e813f5, 2020-09-07)">
  <sodipodi:namedview
     pagecolor="#ffffff"
     bordercolor="#666666"
     borderopacity="1"
     objecttolerance="10"
     gridtolerance="10"
     guidetolerance="10"
     inkscape:pageopacity="0"
     inkscape:pageshadow="2"
     inkscape:window-width="1920"
     inkscape:window-height="932"
     id="namedview46"
     showgrid="false"
     inkscape:zoom="8.4521357"
     inkscape:cx="26.184563"
     inkscape:cy="39.758542"
     inkscape:window-x="0"
     inkscape:window-y="36"
     inkscape:window-maximized="1"
     inkscape:current-layer="svg44" />
  <metadata
     id="metadata2">
    <rdf:RDF>
      <cc:Work
         rdf:about="">
        <dc:format>image/svg+xml</dc:format>
        <dc:type
           rdf:resource="http://purl.org/dc/dcmitype/StillImage" />
        <dc:title></dc:title>
      </cc:Work>
    </rdf:RDF>
  </metadata>
  <defs
     id="defs14">
    <linearGradient
       id="b"
       x1="399.57"
       x2="399.57"
       y1="545.8"
       y2="517.8"
       gradientTransform="matrix(2.1429 0 0 2.1429 -913.14 -1107.5)"
       gradientUnits="userSpaceOnUse">
      <stop
         stop-color="#3889e9"
         offset="0"
         id="stop4" />
      <stop
         stop-color="#5ea5fb"
         offset="1"
         id="stop6" />
    </linearGradient>
    <linearGradient
       id="linearGradient978"
       x1="1.9643"
       x2="14.969"
       y1="14.924"
       y2="2.3319"
       gradientTransform="matrix(3.7796,0,0,3.7796,103.02625,-2.2711e-4)"
       gradientUnits="userSpaceOnUse">
      <stop
         stop-color="#007deb"
         offset="0"
         id="stop9" />
      <stop
         stop-color="#009bf5"
         offset="1"
         id="stop11" />
    </linearGradient>
  </defs>
  <circle
     cx="-54.76"
     cy="32.044"
     r="0"
     fill="url(#b)"
     stroke-width="1.5715"
     id="circle16" />
  <g
     transform="matrix(3.7796 0 0 3.7796 -.00049168 -.00011372)"
     fill="#5e4aa6"
     stroke-width=".26458"
     id="g32">
    <circle
       cx="-297.59"
       cy="-338.41"
       r="0"
       id="circle18" />
    <g
       transform="translate(32.762,-10.031)"
       id="g28">
      <circle
         cx="-299.02"
         cy="-338.77"
         r="0"
         id="circle20" />
      <circle
         cx="-8.1062"
         cy="-3.9487"
         r="0"
         fill-rule="evenodd"
         id="circle22" />
      <circle
         cx="-278.25"
         cy="-357.69"
         r="0"
         id="circle24" />
      <circle
         cx="12.663"
         cy="-22.859"
         r="0"
         fill-rule="evenodd"
         id="circle26" />
    </g>
    <circle
       cx="-330.35"
       cy="-328.38"
       r="0"
       id="circle30" />
  </g>
  <circle
     cx="-1248.6"
     cy="-1241.1"
     r="0"
     fill="#5e4aa6"
     id="circle36" />
  <circle
     cx="-1332.8"
     cy="-1273.1"
     r="0"
     fill="#5e4aa6"
     id="circle38" />
  <rect
     style="fill:#2196f3;stroke-width:0.982013;fill-opacity:1"
     id="rect885"
     width="55"
     height="55"
     x="4.5"
     y="4.5"
     ry="4.8072648" />
  <rect
     style="fill:#ffffff;fill-opacity:1;stroke-width:0.767755"
     id="rect887"
     width="43"
     height="43"
     x="10.5"
     y="10.5"
     ry="2.6418591" />
  <path
     id="rect955"
     style="fill:#3f51b5;fill-opacity:1;stroke-width:0.5"
     d="M 18 18 L 18 46 L 30.726562 46 L 30.726562 39.636719 L 24.363281 39.636719 L 24.363281 24.363281 L 30.726562 24.363281 L 30.726562 18 L 24.222656 18 L 18 18 z M 33.273438 18 L 33.273438 24.363281 L 39.636719 24.363281 L 39.636719 39.636719 L 33.273438 39.636719 L 33.273438 46 L 46 46 L 46 18 L 33.273438 18 z " />
</svg>

<?xml version="1.0" encoding="UTF-8"?>
<svg width="64" height="64" version="1.1" xmlns="http://www.w3.org/2000/svg" xmlns:cc="http://creativecommons.org/ns#" xmlns:dc="http://purl.org/dc/elements/1.1/" xmlns:rdf="http://www.w3.org/1999/02/22-rdf-syntax-ns#">
 <metadata>
  <rdf:RDF>
   <cc:Work rdf:about="">
    <dc:format>image/svg+xml</dc:format>
    <dc:type rdf:resource="http://purl.org/dc/dcmitype/StillImage"/>
    <dc:title/>
   </cc:Work>
  </rdf:RDF>
 </metadata>
 <defs>
  <linearGradient id="b" x1="399.57" x2="399.57" y1="545.8" y2="517.8" gradientTransform="matrix(2.1429 0 0 2.1429 -913.14 -1107.5)" gradientUnits="userSpaceOnUse">
   <stop stop-color="#3889e9" offset="0"/>
   <stop stop-color="#5ea5fb" offset="1"/>
  </linearGradient>
  <linearGradient id="linearGradient978" x1="1.9643" x2="14.969" y1="14.924" y2="2.3319" gradientTransform="matrix(3.7796 0 0 3.7796 -.00098303 -.00022711)" gradientUnits="userSpaceOnUse">
   <stop stop-color="#007deb" offset="0"/>
   <stop stop-color="#009bf5" offset="1"/>
  </linearGradient>
 </defs>
 <circle cx="-54.76" cy="32.044" r="0" fill="url(#b)" stroke-width="1.5715"/>
 <g transform="matrix(3.7796 0 0 3.7796 -.00049168 -.00011372)" fill="#5e4aa6" stroke-width=".26458">
  <circle cx="-297.59" cy="-338.41" r="0"/>
  <g transform="translate(32.762,-10.031)">
   <circle cx="-299.02" cy="-338.77" r="0"/>
   <circle cx="-8.1062" cy="-3.9487" r="0" fill-rule="evenodd"/>
   <circle cx="-278.25" cy="-357.69" r="0"/>
   <circle cx="12.663" cy="-22.859" r="0" fill-rule="evenodd"/>
  </g>
  <circle cx="-330.35" cy="-328.38" r="0"/>
 </g>
 <path d="m62 32c0 3.5964-0.63301 7.0448-1.7939 10.24-0.80694 2.2212-1.8686 4.3212-3.1518 6.2636-0.5375 0.81666-1.1155 1.6053-1.729 2.3633-1.964 2.4256-4.2982 4.5378-6.9182 6.2526-0.96493 0.6318-1.9678 1.2098-3.0061 1.7277-4.0321 2.0178-8.5835 3.1529-13.401 3.1529-4.8171 0-9.3685-1.1351-13.401-3.153-1.0384-0.51803-2.0424-1.096-3.0074-1.7277-2.6535-1.7376-5.0155-3.8832-6.9957-6.349-0.61464-0.76408-1.1914-1.56-1.729-2.384-1.249-1.9101-2.2836-3.9712-3.0746-6.1494-1.1607-3.1948-1.7926-6.6415-1.7926-10.237 0-16.569 13.431-30 30-30 8.317 0 15.843 3.3844 21.277 8.8503 1.5661 1.5746 2.9584 3.3233 4.1436 5.214 1.1204 1.7804 2.0571 3.6881 2.7857 5.6947 1.161 3.1959 1.794 6.6442 1.794 10.24z" fill="url(#linearGradient978)" stroke-width=".11719"/>
 <circle cx="-1248.6" cy="-1241.1" r="0" fill="#5e4aa6"/>
 <circle cx="-1332.8" cy="-1273.1" r="0" fill="#5e4aa6"/>
 <circle cx="32" cy="32" r="24" fill="#fff" stroke-width="1.5715"/>
 <path d="m18 18v28h12.727v-6.3636h-6.3636v-15.273h6.3636v-6.3636h-6.505zm15.273 0v6.3636h6.3636v15.273h-6.3636v6.3636h12.727v-28h-12.727z" fill="#2d3237"/>
</svg>
